X:43
T:Jigs simple chords 80
M:3/4
L:1/8
K:G
[d2D,2F,2A,2C2] c[BG,B,D] dd | GB B[DG,B,D] GG | B,D D[B,G,B,D] DD | GB B[GD,F,A,] FF | F2>[D2D,2F,2A,2] FF |
FA A[AD,F,A,] cc | cd d[dD,F,A,] ff | fd d[cG,B,D] BB | B2>[B2G,2B,2D2] dd |
GB B[DG,B,D] GG | B,D D[B,G,B,D] DD | GB B[GD,F,A,] FF | F2>[D2D,2F,2A,2] FF |
FA A[AD,F,A,] cc | cd d[dD,F,A,] ff | fe f[aG,B,D] gg | g2>[b2G,2B,2D2] gg |
dg g[bG,B,D] gg | ed d[bG,B,D] gg | dg g[gD,F,A,] ff | f2>[a2D,2F,2A,2] ff |
df f[aD,F,A,] ff | fe d[aD,F,A,] ff | df f[eG,B,D] dd | d2>[b2G,2B,2D2] gg |
dg g[bG,B,D] gg | ed d[bG,B,D] gg | dg g[gC,E,G,] ee | e2>[e2C,2E,2G,2] cc |
Gc c[DG,B,D] GG | Bd d[dD,F,A,] ff | fe f[aG,B,D] gg | g3 |


